src/next/cmd/lc_sendviabluetooth.svg

<svg height="24" width="24" xmlns="http://www.w3.org/2000/svg" xmlns:xlink="http://www.w3.org/1999/xlink"><linearGradient id="a"><stop offset="0" stop-color="#fff"/><stop offset="1" stop-color="#fff" stop-opacity="0"/></linearGradient><linearGradient id="b" gradientTransform="matrix(-1.1375595 0 0 -1.2056083 136.80887 141.67262)" gradientUnits="userSpaceOnUse" x1="48.800022" x2="59.752357" y1="16" y2="56.874668"><stop offset="0"/><stop offset="1" stop-opacity="0"/></linearGradient><linearGradient id="c" gradientTransform="matrix(1.1375595 0 0 1.2056083 -8.803801 -12.645238)" gradientUnits="userSpaceOnUse" x1="48.800022" x2="59.752357" xlink:href="#a" y1="16" y2="56.874668"/><radialGradient id="d" cx="48" cy="66.450142" gradientTransform="matrix(2.255544 -.00000013 .00000016 2.8898165 -44.266114 -81.093486)" gradientUnits="userSpaceOnUse" r="23"><stop offset="0" stop-color="#2782e9"/><stop offset="1" stop-color="#193693"/></radialGradient><linearGradient id="e" gradientTransform="matrix(1.7926406 0 0 1.7020353 1.471432 -.997998)" gradientUnits="userSpaceOnUse" x1="35.102802" x2="35.102802" xlink:href="#a" y1="6.854038" y2="34.885773"/><filter id="f" color-interpolation-filters="sRGB" height="1.02034" width="1.029267" x="-.014633" y="-.01017"><feGaussianBlur stdDeviation=".53065801"/></filter><filter id="g" color-interpolation-filters="sRGB" height="1.020222" width="1.029514" x="-.014757" y="-.010111"><feGaussianBlur stdDeviation=".51112457"/></filter><filter id="h" color-interpolation-filters="sRGB" height="1.040235" width="1.059478" x="-.029739" y="-.020118"><feGaussianBlur stdDeviation=".98969349"/></filter><filter id="i" color-interpolation-filters="sRGB" height="1.02714" width="1.021512" x="-.010756" y="-.01357"><feGaussianBlur stdDeviation=".31905792"/></filter><linearGradient id="j" gradientUnits="userSpaceOnUse" x1="93.242313" x2="93.242313" xlink:href="#a" y1="72.188636" y2="-31.811364"/><g transform="matrix(.171875 0 0 .171875 1 .852661)"><path d="m64 1.3845247c-11.486867 0-22.919254 2.2494014-31.036441 11.7200543-8.106719 9.458443-12.479687 25.172131-12.479687 50.895421 0 25.723293 4.372968 41.43697 12.479687 50.89542 8.117187 9.47066 19.549574 11.72005 31.036441 11.72005 11.486861 0 22.919252-2.24939 31.03644-11.72005 8.10672-9.45845 12.47969-25.172127 12.47969-50.89542 0-25.723292-4.37297-41.436978-12.47969-50.895421-8.117188-9.4706529-19.549579-11.7200543-31.03644-11.7200543z" filter="url(#f)" opacity=".1" transform="matrix(.95590697 0 0 .98047343 1.9067 3.465428)"/><path d="m64 3.3378671c-11.233061 0-21.887706 2.167328-29.517174 11.0689399-7.629467 8.901612-12.045611 24.097757-12.045611 49.593193 0 25.49544 4.416144 40.69157 12.045611 49.59319 7.629468 8.90162 18.284113 11.06894 29.517174 11.06894 11.233056 0 21.887704-2.16732 29.517174-11.06894 7.629466-8.90162 12.045606-24.09775 12.045606-49.59319 0-25.495438-4.41614-40.691581-12.045606-49.593193-7.62947-8.9016119-18.284118-11.0689399-29.517174-11.0689399z" filter="url(#g)" opacity=".2" transform="matrix(.9766381 0 0 .98026319 1.495162 3.478884)"/><path d="m103.935 63.999998c0 50.600872-17.890889 59.034352-39.935 59.034352-22.044123 0-39.935-8.43348-39.935-59.034352 0-50.600867 17.890877-59.0343455 39.935-59.0343455 22.044111 0 39.935 8.4334785 39.935 59.0343455z" filter="url(#h)" opacity=".708" transform="matrix(.9766381 0 0 .98026319 1.495162 3.478884)"/><path d="m103.00204 64.513691c0 49.602169-17.472921 57.869189-39.00204 57.869189-21.529131 0-39.002043-8.26702-39.002043-57.869189 0-49.602167 17.472912-57.8691963 39.002043-57.8691963 21.529119 0 39.00204 8.2670293 39.00204 57.8691963z" fill="url(#d)"/><path d="m64 6.6444947c-21.529131 0-39.002043 8.2670303-39.002043 57.8691983 0 49.602167 17.472912 57.869187 39.002043 57.869187 21.529119 0 39.00204-8.26702 39.00204-57.869187 0-49.602168-17.472921-57.8691983-39.00204-57.8691983zm0 2.4998642c10.444127 0 19.198036 1.9141051 25.648081 9.4675711 6.450048 7.553466 10.863339 21.397917 10.863339 45.901763 0 24.503848-4.413291 38.348297-10.863339 45.901757-6.450045 7.55347-15.203954 9.46758-25.648081 9.46758-10.444135 0-19.198038-1.91411-25.648081-9.46758-6.450046-7.55346-10.863343-21.397909-10.863343-45.901757 0-24.503846 4.413297-38.348297 10.863343-45.901763 6.450043-7.553466 15.203947-9.4675711 25.648081-9.4675711z" fill="#103876" opacity=".870968"/><path d="m64.005085 122.38288c21.52912 0 38.996955-8.26702 38.996955-57.869189 0-20.150882-2.88274-33.472112-7.749621-42.19629 3.47163 8.59736 5.474511 20.613206 5.474511 37.373855 0 49.602194-17.467845 57.869214-38.996965 57.869214-12.782924 0-24.134208-2.9222-31.247334-15.67293 6.802459 16.84603 19.268049 20.49534 33.522454 20.49534z" fill="url(#b)" opacity=".2"/><path d="m43.444152 46.006818 39.636366 36.363636-21.838206 17.818176v-71.999994l21.838206 17.818182-39.636366 36.363636" fill="none" stroke="url(#j)" stroke-linecap="square" stroke-width="5.75"/><path d="m96.087846 40.755833a31.689707 30.088017 0 1 1 -63.379413 0 31.689707 30.088017 0 1 1 63.379413 0z" fill="url(#e)" opacity=".9"/><path d="m28.405761 60.527392c-.0052.584396 0 1.139095 0 1.736304 0 24.787748 4.515782 38.483814 10.689124 45.686504 6.173342 7.2027 14.437799 9.00708 24.905115 9.00708 10.467309 0 18.731772-1.80438 24.905115-9.00708 6.173343-7.20269 10.689126-20.898758 10.689126-45.686504 0-.597209.0056-1.151908 0-1.736304-.210737 23.671558-4.664516 36.921052-10.689126 43.950208-6.173343 7.20269-14.437806 9.00708-24.905115 9.00708-10.467316 0-18.731773-1.80439-24.905115-9.00708-6.024609-7.029156-10.478389-20.278649-10.689124-43.950208z" fill="#fff" filter="url(#i)" opacity=".25" transform="matrix(.9766381 0 0 .98026319 1.495162 3.478884)"/><path d="m64 6.6444947c-21.529131 0-38.996956 8.2670293-38.996956 57.8691963 0 20.150881 2.882745 33.47211 7.749622 42.196299-3.471638-8.597371-5.474504-20.613219-5.474504-37.373867 0-49.602168 17.467827-57.869196 38.996956-57.869196 12.782914 0 24.1342 2.922187 31.247331 15.672907-6.802454-16.846024-19.268057-20.4953393-33.522449-20.4953393z" fill="url(#c)" opacity="0"/></g></svg>

<?xml version="1.0" encoding="UTF-8" standalone="no"?>
<!-- Created with Inkscape (http://www.inkscape.org/) -->

<svg
   xmlns:dc="http://purl.org/dc/elements/1.1/"
   xmlns:cc="http://creativecommons.org/ns#"
   xmlns:rdf="http://www.w3.org/1999/02/22-rdf-syntax-ns#"
   xmlns:svg="http://www.w3.org/2000/svg"
   xmlns="http://www.w3.org/2000/svg"
   xmlns:xlink="http://www.w3.org/1999/xlink"
   xmlns:sodipodi="http://sodipodi.sourceforge.net/DTD/sodipodi-0.dtd"
   xmlns:inkscape="http://www.inkscape.org/namespaces/inkscape"
   version="1.0"
   width="24"
   height="24"
   id="svg2408"
   sodipodi:docname="lc_sendviabluetooth.svg"
   inkscape:version="0.92.4 (unknown)"
   inkscape:export-filename="/home/rizmut/Dokumen/Rizmut/Github/libreoffice-style-karasa-jaga/build/next/cmd/lc_sendviabluetooth.png"
   inkscape:export-xdpi="96"
   inkscape:export-ydpi="96">
  <sodipodi:namedview
     pagecolor="#ffffff"
     bordercolor="#666666"
     borderopacity="1"
     objecttolerance="10"
     gridtolerance="10"
     guidetolerance="10"
     inkscape:pageopacity="0"
     inkscape:pageshadow="2"
     inkscape:window-width="1366"
     inkscape:window-height="768"
     id="namedview76"
     showgrid="true"
     inkscape:zoom="10.678386"
     inkscape:cx="14.390447"
     inkscape:cy="5.5661827"
     inkscape:window-x="0"
     inkscape:window-y="28"
     inkscape:window-maximized="0"
     inkscape:current-layer="svg2408"
     inkscape:snap-global="true">
    <inkscape:grid
       type="xygrid"
       id="grid89"
       spacingx="0.5"
       spacingy="0.5"
       empspacing="2" />
  </sodipodi:namedview>
  <defs
     id="defs2410">
    <linearGradient
       id="linearGradient3687">
      <stop
         id="stop3689"
         style="stop-color:#ffffff;stop-opacity:1"
         offset="0" />
      <stop
         id="stop3691"
         style="stop-color:#ffffff;stop-opacity:0"
         offset="1" />
    </linearGradient>
    <linearGradient
       x1="58.650177"
       y1="122"
       x2="58.650177"
       y2="5.4252338"
       id="linearGradient3677"
       gradientUnits="userSpaceOnUse"
       gradientTransform="matrix(1.0172414,0,0,1.0172414,-1.1034483,-1.1034483)">
      <stop
         id="stop3679"
         style="stop-color:#2782e9;stop-opacity:1"
         offset="0" />
      <stop
         id="stop3681"
         style="stop-color:#193693;stop-opacity:1"
         offset="1" />
    </linearGradient>
    <linearGradient
       x1="45.447727"
       y1="92.539597"
       x2="45.447727"
       y2="7.0165396"
       id="ButtonShadow"
       gradientUnits="userSpaceOnUse"
       gradientTransform="scale(1.0058652,0.994169)">
      <stop
         id="stop3750"
         style="stop-color:#000000;stop-opacity:1"
         offset="0" />
      <stop
         id="stop3752"
         style="stop-color:#000000;stop-opacity:0.58823532"
         offset="1" />
    </linearGradient>
    <linearGradient
       id="linearGradient3737">
      <stop
         id="stop3739"
         style="stop-color:#ffffff;stop-opacity:1"
         offset="0" />
      <stop
         id="stop3741"
         style="stop-color:#ffffff;stop-opacity:0"
         offset="1" />
    </linearGradient>
    <filter
       id="filter3174"
       style="color-interpolation-filters:sRGB">
      <feGaussianBlur
         id="feGaussianBlur3176"
         stdDeviation="1.71" />
    </filter>
    <linearGradient
       x1="36.357143"
       y1="6"
       x2="36.357143"
       y2="63.893143"
       id="linearGradient3188"
       xlink:href="#linearGradient3737"
       gradientUnits="userSpaceOnUse" />
    <filter
       x="-0.192"
       y="-0.192"
       width="1.3839999"
       height="1.3839999"
       id="filter3794"
       style="color-interpolation-filters:sRGB">
      <feGaussianBlur
         id="feGaussianBlur3796"
         stdDeviation="5.28" />
    </filter>
    <linearGradient
       x1="48"
       y1="20.220806"
       x2="48"
       y2="138.66119"
       id="linearGradient3613"
       xlink:href="#linearGradient3737"
       gradientUnits="userSpaceOnUse" />
    <radialGradient
       cx="48"
       cy="90.171875"
       r="42"
       fx="48"
       fy="90.171875"
       id="radialGradient3619"
       xlink:href="#linearGradient3737"
       gradientUnits="userSpaceOnUse"
       gradientTransform="matrix(1.1573129,0,0,0.99590774,-7.5510206,0.19713193)" />
    <clipPath
       id="clipPath3613">
      <rect
         width="84"
         height="84"
         rx="6"
         ry="6"
         x="6"
         y="6"
         id="rect3615"
         style="fill:#ffffff;fill-opacity:1;fill-rule:nonzero;stroke:none" />
    </clipPath>
    <linearGradient
       x1="48"
       y1="90"
       x2="48"
       y2="5.9877172"
       id="linearGradient3617"
       xlink:href="#ButtonColor"
       gradientUnits="userSpaceOnUse" />
    <linearGradient
       x1="58.650177"
       y1="122"
       x2="58.650177"
       y2="5.4252338"
       id="ButtonColor"
       gradientUnits="userSpaceOnUse"
       gradientTransform="matrix(1.0172414,0,0,1.0172414,-1.1034483,-1.1034483)">
      <stop
         id="stop3189"
         style="stop-color:#27429c;stop-opacity:1"
         offset="0" />
      <stop
         id="stop3191"
         style="stop-color:#5072e1;stop-opacity:1"
         offset="1" />
    </linearGradient>
    <linearGradient
       id="linearGradient3374">
      <stop
         id="stop3376"
         style="stop-color:#000000;stop-opacity:1"
         offset="0" />
      <stop
         id="stop3378"
         style="stop-color:#000000;stop-opacity:0"
         offset="1" />
    </linearGradient>
    <linearGradient
       id="linearGradient8650">
      <stop
         id="stop8652"
         style="stop-color:#ffffff;stop-opacity:1"
         offset="0" />
      <stop
         id="stop8654"
         style="stop-color:#ffffff;stop-opacity:0"
         offset="1" />
    </linearGradient>
    <linearGradient
       x1="48"
       y1="90"
       x2="48"
       y2="5.9877172"
       id="linearGradient3839"
       xlink:href="#ButtonColor"
       gradientUnits="userSpaceOnUse"
       gradientTransform="translate(0,-100)" />
    <linearGradient
       x1="48.800022"
       y1="16"
       x2="59.752357"
       y2="56.874668"
       id="linearGradient2943"
       xlink:href="#linearGradient3374"
       gradientUnits="userSpaceOnUse"
       gradientTransform="matrix(-1.1375595,0,0,-1.2056083,136.80887,141.67262)" />
    <linearGradient
       x1="48.800022"
       y1="16"
       x2="59.752357"
       y2="56.874668"
       id="linearGradient2947"
       xlink:href="#linearGradient8650"
       gradientUnits="userSpaceOnUse"
       gradientTransform="matrix(1.1375595,0,0,1.2056083,-8.8038008,-12.645238)" />
    <radialGradient
       cx="48"
       cy="66.450142"
       r="23"
       fx="48"
       fy="66.450142"
       id="radialGradient3683"
       xlink:href="#linearGradient3677"
       gradientUnits="userSpaceOnUse"
       gradientTransform="matrix(2.255544,-1.2754207e-7,1.6220132e-7,2.8898165,-44.266114,-81.093486)" />
    <linearGradient
       x1="35.102802"
       y1="6.8540382"
       x2="35.102802"
       y2="34.885773"
       id="linearGradient3703"
       xlink:href="#linearGradient3687"
       gradientUnits="userSpaceOnUse"
       gradientTransform="matrix(1.7926406,0,0,1.7020353,1.4714318,-0.9979981)" />
    <linearGradient
       x1="62.339497"
       y1="48"
       x2="62.339497"
       y2="-6.5482373"
       id="linearGradient3725"
       xlink:href="#linearGradient3687"
       gradientUnits="userSpaceOnUse"
       gradientTransform="matrix(1.8742771,0,0,1.7363043,-30.478204,-20.561072)" />
    <linearGradient
       x1="45.447727"
       y1="92.539597"
       x2="45.447727"
       y2="7.0165396"
       id="ButtonShadow-0"
       gradientUnits="userSpaceOnUse"
       gradientTransform="matrix(1.0058652,0,0,0.994169,100,0)">
      <stop
         id="stop3750-8"
         style="stop-color:#000000;stop-opacity:1"
         offset="0" />
      <stop
         id="stop3752-5"
         style="stop-color:#000000;stop-opacity:0.58823532"
         offset="1" />
    </linearGradient>
    <linearGradient
       x1="32.251034"
       y1="6.1317081"
       x2="32.251034"
       y2="90.238609"
       id="linearGradient3780"
       xlink:href="#ButtonShadow-0"
       gradientUnits="userSpaceOnUse"
       gradientTransform="matrix(1.0238095,0,0,1.0119048,-1.1428571,-98.071429)" />
    <linearGradient
       x1="32.251034"
       y1="6.1317081"
       x2="32.251034"
       y2="90.238609"
       id="linearGradient3772"
       xlink:href="#ButtonShadow-0"
       gradientUnits="userSpaceOnUse"
       gradientTransform="matrix(1.0238095,0,0,1.0119048,-1.1428571,-98.071429)" />
    <linearGradient
       x1="32.251034"
       y1="6.1317081"
       x2="32.251034"
       y2="90.238609"
       id="linearGradient3725-0"
       xlink:href="#ButtonShadow-0"
       gradientUnits="userSpaceOnUse"
       gradientTransform="matrix(1.0238095,0,0,1.0119048,-1.1428571,-98.071429)" />
    <linearGradient
       x1="32.251034"
       y1="6.1317081"
       x2="32.251034"
       y2="90.238609"
       id="linearGradient3721"
       xlink:href="#ButtonShadow-0"
       gradientUnits="userSpaceOnUse"
       gradientTransform="translate(0,-97)" />
    <linearGradient
       x1="32.251034"
       y1="6.1317081"
       x2="32.251034"
       y2="90.238609"
       id="linearGradient3122"
       xlink:href="#ButtonShadow-0"
       gradientUnits="userSpaceOnUse"
       gradientTransform="matrix(1.0238095,0,0,1.0119048,-1.1428571,-98.071429)" />
    <filter
       inkscape:collect="always"
       style="color-interpolation-filters:sRGB"
       id="filter904"
       x="-0.014633416"
       width="1.0292668"
       y="-0.010169844"
       height="1.0203397">
      <feGaussianBlur
         inkscape:collect="always"
         stdDeviation="0.53065801"
         id="feGaussianBlur906" />
    </filter>
    <filter
       inkscape:collect="always"
       style="color-interpolation-filters:sRGB"
       id="filter912"
       x="-0.014757181"
       width="1.0295144"
       y="-0.010110912"
       height="1.0202218">
      <feGaussianBlur
         inkscape:collect="always"
         stdDeviation="0.51112457"
         id="feGaussianBlur914" />
    </filter>
    <filter
       inkscape:collect="always"
       style="color-interpolation-filters:sRGB"
       id="filter928"
       x="-0.02973913"
       width="1.0594783"
       y="-0.020117646"
       height="1.0402353">
      <feGaussianBlur
         inkscape:collect="always"
         stdDeviation="0.98969349"
         id="feGaussianBlur930" />
    </filter>
    <filter
       inkscape:collect="always"
       style="color-interpolation-filters:sRGB"
       id="filter942"
       x="-0.010755777"
       width="1.0215116"
       y="-0.013569742"
       height="1.0271395">
      <feGaussianBlur
         inkscape:collect="always"
         stdDeviation="0.31905792"
         id="feGaussianBlur944" />
    </filter>
    <linearGradient
       inkscape:collect="always"
       xlink:href="#linearGradient3687"
       id="linearGradient892"
       x1="96"
       y1="72"
       x2="96"
       y2="-32"
       gradientUnits="userSpaceOnUse"
       gradientTransform="translate(-2.7576874,0.18863625)" />
  </defs>
  <metadata
     id="metadata2413">
    <rdf:RDF>
      <cc:Work
         rdf:about="">
        <dc:format>image/svg+xml</dc:format>
        <dc:type
           rdf:resource="http://purl.org/dc/dcmitype/StillImage" />
        <dc:title></dc:title>
      </cc:Work>
    </rdf:RDF>
  </metadata>
  <g
     id="layer2"
     style="display:none"
     transform="translate(0,-72)">
    <rect
       width="86"
       height="85"
       rx="6"
       ry="6"
       x="5"
       y="7"
       id="rect3745"
       style="opacity:0.9;fill:url(#ButtonShadow);fill-opacity:1;fill-rule:nonzero;stroke:none;filter:url(#filter3174)" />
  </g>
  <g
     id="g942"
     transform="matrix(0.171875,0,0,0.171875,1,0.8526605)">
    <path
       transform="matrix(0.95590697,0,0,0.98047343,1.9066999,3.4654284)"
       d="m 64,1.3845247 c -11.486867,0 -22.919254,2.2494014 -31.036441,11.7200543 C 24.85684,22.563022 20.483872,38.27671 20.483872,64 c 0,25.723293 4.372968,41.43697 12.479687,50.89542 8.117187,9.47066 19.549574,11.72005 31.036441,11.72005 11.486861,0 22.919252,-2.24939 31.03644,-11.72005 8.10672,-9.45845 12.47969,-25.172127 12.47969,-50.89542 0,-25.723292 -4.37297,-41.436978 -12.47969,-50.895421 C 86.919252,3.6339261 75.486861,1.3845247 64,1.3845247 Z"
       id="path3732"
       style="display:inline;opacity:0.1;fill:#000000;fill-opacity:1;stroke:none;stroke-width:1.7363044;filter:url(#filter904)"
       inkscape:connector-curvature="0" />
    <path
       transform="matrix(0.9766381,0,0,0.98026319,1.4951617,3.4788836)"
       d="m 64,3.3378671 c -11.233061,0 -21.887706,2.167328 -29.517174,11.0689399 C 26.853359,23.308419 22.437215,38.504564 22.437215,64 c 0,25.49544 4.416144,40.69157 12.045611,49.59319 7.629468,8.90162 18.284113,11.06894 29.517174,11.06894 11.233056,0 21.887704,-2.16732 29.517174,-11.06894 C 101.14664,104.69157 105.56278,89.49544 105.56278,64 c 0,-25.495438 -4.41614,-40.691581 -12.045606,-49.593193 C 85.887704,5.5051951 75.233056,3.3378671 64,3.3378671 Z"
       id="path3728"
       style="display:inline;opacity:0.2;fill:#000000;fill-opacity:1;stroke:none;stroke-width:1.7363044;filter:url(#filter912)"
       inkscape:connector-curvature="0" />
    <path
       transform="matrix(0.9766381,0,0,0.98026319,1.4951617,3.4788836)"
       d="m 103.935,63.999998 c 0,50.600872 -17.890889,59.034352 -39.935,59.034352 -22.044123,0 -39.935,-8.43348 -39.935,-59.034352 0,-50.600867 17.890877,-59.0343455 39.935,-59.0343455 22.044111,0 39.935,8.4334785 39.935,59.0343455 z"
       inkscape:connector-curvature="0"
       id="path2952"
       style="display:inline;opacity:0.70800003;fill:#000000;fill-opacity:1;stroke:none;stroke-width:1.7363044;filter:url(#filter928)" />
    <path
       d="m 103.00204,64.513691 c 0,49.602169 -17.472921,57.869189 -39.00204,57.869189 -21.529131,0 -39.002043,-8.26702 -39.002043,-57.869189 0,-49.602167 17.472912,-57.8691963 39.002043,-57.8691963 21.529119,0 39.00204,8.2670293 39.00204,57.8691963 z"
       inkscape:connector-curvature="0"
       id="path2902"
       style="display:inline;fill:url(#radialGradient3683);fill-opacity:1;stroke:none;stroke-width:1.6988852" />
    <path
       d="m 64,6.6444947 c -21.529131,0 -39.002043,8.2670303 -39.002043,57.8691983 0,49.602167 17.472912,57.869187 39.002043,57.869187 21.529119,0 39.00204,-8.26702 39.00204,-57.869187 C 103.00204,14.911525 85.529119,6.6444947 64,6.6444947 Z m 0,2.4998642 c 10.444127,0 19.198036,1.9141051 25.648081,9.4675711 6.450048,7.553466 10.863339,21.397917 10.863339,45.901763 0,24.503848 -4.413291,38.348297 -10.863339,45.901757 -6.450045,7.55347 -15.203954,9.46758 -25.648081,9.46758 -10.444135,0 -19.198038,-1.91411 -25.648081,-9.46758 -6.450046,-7.55346 -10.863343,-21.397909 -10.863343,-45.901757 0,-24.503846 4.413297,-38.348297 10.863343,-45.901763 C 44.801962,11.058464 53.555866,9.1443589 64,9.1443589 Z"
       inkscape:connector-curvature="0"
       id="path3705"
       style="display:inline;opacity:0.87096773;fill:#103876;fill-opacity:1;stroke:none;stroke-width:1.6988852" />
    <path
       d="m 64.005085,122.38288 c 21.52912,0 38.996955,-8.26702 38.996955,-57.869189 0,-20.150882 -2.88274,-33.472112 -7.749621,-42.19629 3.47163,8.59736 5.474511,20.613206 5.474511,37.373855 0,49.602194 -17.467845,57.869214 -38.996965,57.869214 -12.782924,0 -24.134208,-2.9222 -31.247334,-15.67293 6.802459,16.84603 19.268049,20.49534 33.522454,20.49534 z"
       inkscape:connector-curvature="0"
       id="path2908"
       style="display:inline;opacity:0.2;fill:url(#linearGradient2943);fill-opacity:1;stroke:none;stroke-width:1.6988852" />
    <path
       sodipodi:nodetypes="cccccc"
       id="path4"
       d="M 43.444152,46.006818 83.080518,82.370454 61.242312,100.18863 V 28.188636 L 83.080518,46.006818 43.444152,82.370454"
       style="fill:none;stroke:url(#linearGradient892);stroke-width:5.75;stroke-linecap:square;stroke-linejoin:miter;stroke-miterlimit:4;stroke-dasharray:none"
       inkscape:connector-curvature="0" />
    <path
       d="m 96.087846,40.755833 a 31.689707,30.088017 0 1 1 -63.379413,0 31.689707,30.088017 0 1 1 63.379413,0 z"
       id="path3695"
       style="opacity:0.9;fill:url(#linearGradient3703);fill-opacity:1;stroke:none;stroke-width:1.74675059"
       inkscape:connector-curvature="0" />
    <path
       transform="matrix(0.9766381,0,0,0.98026319,1.4951617,3.4788836)"
       d="m 28.405761,60.527392 c -0.0052,0.584396 0,1.139095 0,1.736304 0,24.787748 4.515782,38.483814 10.689124,45.686504 6.173342,7.2027 14.437799,9.00708 24.905115,9.00708 10.467309,0 18.731772,-1.80438 24.905115,-9.00708 6.173343,-7.20269 10.689126,-20.898758 10.689126,-45.686504 0,-0.597209 0.0056,-1.151908 0,-1.736304 C 99.383504,84.19895 94.929725,97.448444 88.905115,104.4776 82.731772,111.68029 74.467309,113.48468 64,113.48468 c -10.467316,0 -18.731773,-1.80439 -24.905115,-9.00708 C 33.070276,97.448444 28.616496,84.198951 28.405761,60.527392 Z"
       inkscape:connector-curvature="0"
       id="path3714"
       style="display:inline;opacity:0.25;fill:#ffffff;fill-opacity:1;stroke:none;stroke-width:1.7363044;filter:url(#filter942)" />
    <path
       d="m 64,6.6444947 c -21.529131,0 -38.996956,8.2670293 -38.996956,57.8691963 0,20.150881 2.882745,33.47211 7.749622,42.196299 -3.471638,-8.597371 -5.474504,-20.613219 -5.474504,-37.373867 0,-49.602168 17.467827,-57.869196 38.996956,-57.869196 12.782914,0 24.1342,2.922187 31.247331,15.672907 C 90.719995,10.29381 78.254392,6.6444947 64,6.6444947 Z"
       inkscape:connector-curvature="0"
       id="path2904"
       style="display:inline;opacity:0;fill:url(#linearGradient2947);fill-opacity:1;stroke:none;stroke-width:1.6988852" />
  </g>
</svg>
